build/category/TrophySolid.svg

<svg xmlns="http://www.w3.org/2000/svg" fill="none" viewBox="0 0 24 24" focusable="false"><path d="M0 0H24V24H0z"/><path fill="#74767B" fill-rule="evenodd" d="M3 6.50709C3 8.40965 4.4056 10.0051 6.26696 10.2651C6.92389 12.5388 8.88953 14.2572 11.2953 14.5517L11.2953 17L10.5319 17C8.87504 17 7.5319 18.3431 7.5319 20L7.5319 20.3C7.5319 20.6866 7.8453 21 8.2319 21L15.8319 21C16.2185 21 16.5319 20.6866 16.5319 20.3L16.5319 20C16.5319 18.3431 15.1888 17 13.5319 17L12.5953 17L12.5953 14.5704C15.1008 14.3371 17.1592 12.5631 17.8138 10.2051C19.6544 9.8824 21.0302 8.27832 21.0302 6.37163L21.0302 5.87681C21.0302 4.84043 20.1901 4.00028 19.1537 4.00028L17.056 4.00028L17.0319 4L7.0319 4L7.00783 4.00028L4.8893 4.00028C3.84587 4.00028 3 4.84615 3 5.88958L3 6.50709ZM4.8893 5.30028L6.0319 5.30028L6.0319 8.5965C6.0319 8.69321 6.03419 8.78939 6.03871 8.88498C5.02389 8.56299 4.3 7.61413 4.3 6.50709L4.3 5.88958C4.3 5.56412 4.56384 5.30028 4.8893 5.30028ZM18.0319 5.30028L18.0319 8.5965C18.0319 8.6669 18.0307 8.73701 18.0283 8.80683C19.0269 8.44203 19.7302 7.48418 19.7302 6.37163L19.7302 5.87681C19.7302 5.55841 19.4721 5.30028 19.1537 5.30028L18.0319 5.30028Z"/></svg>

<svg xmlns="http://www.w3.org/2000/svg" fill="none" viewBox="0 0 24 24" focusable="false"><path fill="#74767B" fill-rule="evenodd" d="M3 6.5c0 1.9 1.4 3.5 3.26 3.76a6.02 6.02 0 0 0 5.03 4.29V17h-.76c-1.66 0-3 1.34-3 3v.29c0 .39.31.71.7.71h7.6c.38 0 .7-.32.7-.71V20c0-1.66-1.35-3-3-3h-.94v-2.43a6.02 6.02 0 0 0 5.22-4.37 3.896 3.896 0 0 0 3.22-3.83v-.5c0-1.03-.85-1.87-1.88-1.87H4.88C3.84 4 3 4.84 3 5.88zm1.88-1.2h1.15v3.58A2.5 2.5 0 0 1 4.29 6.5v-.62c0-.32.27-.58.59-.58m13.15 0v3.29c0 .07 0 .14-.01.21 1-.36 1.71-1.32 1.71-2.43v-.5c0-.32-.26-.57-.58-.57z"/></svg>
